X:572
T:Emmett's
S:Bruce & Emmett's Drummers and Fifers Guide (1862), p. 57
M:2/4
L:1/16
Q:1/4=100
K:D
%%MIDI program 72
%%MIDI transpose 8
%%MIDI ratio 3 1
(3(ABc)|d2cd BdAd|eada caBa|AaBa caBa|(^ga)ea fdAF|z.d(cd) BdAd|
eada caBa|AaBa caBa|fdAF D2::A2|^GAEa fdAf|gAfA ecdA|
^GAEA FADA|Beec dBA^G|Aada fdcd|gefd edcd|ecAe fedc|Bedc d2:|
